X: 8
T:La Calhe
M:3/4
L:1/8
Q:180
R:Bourre  3 temps
O:France
A:Limousin
K:G
D|G/2G/2 GG|AAd|cd2|A2D|G/2G/2 GG|AAd|cd2|A2G|
A/2B/2 cA|BGA|BGF|G2 G|A/2B/2 cA|BGA|BGF|G2 z||
W:
W: From "Falaleiro" http://home.t-online.de/home/pheld/homepage.htm
